resources/haticons/SVG/menu3.svg

<!-- Generated by IcoMoon.io -->
<svg version="1.1" xmlns="http://www.w3.org/2000/svg" width="33" height="24" viewBox="0 0 33 24">
<title>menu3</title>
<path d="M0 4.5h21v4.5h-21v-4.5zM0 10.5h21v4.5h-21v-4.5zM0 16.5h21v4.5h-21v-4.5z"></path>
<path d="M23.25 10.5l4.5 4.5 4.5-4.5z"></path>
</svg>

<svg xmlns="http://www.w3.org/2000/svg" width="33" height="24"><path d="M0 4.5h21V9H0V4.5zm0 6h21V15H0v-4.5zm0 6h21V21H0v-4.5zm23.25-6l4.5 4.5 4.5-4.5z"/></svg>
